X:1
T:Title
%%score { ( 1 4 ) | ( 2 3 ) }
L:1/8
Q:1/4=90
M:6/8
K:G
V:1 treble nm="Grand Piano"
V:4 treble 
V:2 bass 
V:3 bass 
V:1
 [DB]BB AAA | GG[B,G][K:bass] .[B,D]3 | [F,D][K:treble][DF][FA] [Ac]BA | %3
w: J.~Gilchrist~Lawson * * * * *|||
 [DB][A,DA][A,^CG] .[DFA]3 | [DB]B[DB] [CA]A[CA] | [B,G]G[DG] .[CE]3 | [^CE][DF][EG] [GB]AG | %7
w: ||||
[M:13/16] z/ z/ z/ z/ z A/-A/-A/-A-<A |[M:3/4] [DB]3 [Ec]2 [DB] | [CEA]3 [CE]2 [CE] | %10
w: |||
 [CF]3 [CG]2 [CA] | [B,D]6 | [CE]3 [DF]2 [EG] | [DBd]3 .[DB]3 | [^CA]3 .[CE]3 | A6 | %16
w: ||||||
 [DB]3 [Ec]2 [DB] | [CEA]3 [CE]2 [CE] | [CF]3 [CG]2 [CA] | [B,D]6 | [CE]3 [DF]2 [EG] | %21
w: |||||
 [DBd]3 .[DB]3 | [^CA]4 z2 | [B,G]6 |] %24
w: |||
V:2
 z D[G,D] [D,C][E,C][F,C] | .G,3 z3 | z A,D z[K:treble] GF | G,F,D, D,C,A,, | z DG, z C^D, | %5
 z B,B,, C,E,G, | A,,A,A, A,,[K:treble][A,F][A,E] | %7
[M:13/16][K:bass] [D,A,C][E,A,^C][=F,B,D][^F,A,D][E,A,C][D,=CD]3/2 |[M:3/4] G,,D, G,G,, E,G, | %9
 C,E, A,C, E,A, | D,F, A,D, F,A, | G,E, B,,G,, D,G, | E,G, G,C, G,G, | G,,D, D,G,, D,[D,G,B,] | %14
 A,,G, G,G,, G,[G,A,^C] | z F, G,A, A,F, | G,,D, G,G,, E,G, | C,E, A,C, E,A, | D,F, A,D, F,A, | %19
 G,E, B,,G,, D,G, | E,G, G,C, G,G, | G,,D, D,G,, D,[D,G,B,] | A,,E, E,D, E,F, | G,D, B,, .G,,3 |] %24
V:3
 .G,,3 z3 | B,B,G,, G,G,,B,, | .D,3 .[D,D]3[K:treble] | x6 | .G,,3 .D,3 | .E,3 z3 | %6
 x4[K:treble] x2 |[M:13/16][K:bass] x13/2 |[M:3/4] x6 | x6 | x6 | x6 | x6 | x6 | x6 | D,6 | x6 | %17
 x6 | x6 | x6 | x6 | x6 | x6 | x6 |] %24
V:4
 x6 | x3[K:bass] x3 | x[K:treble] x5 | x6 | x6 | x6 | x6 |[M:13/16] FG^G z GF3/2 |[M:3/4] x6 | x6 | %10
 x6 | x6 | x6 | z [G,B,] .[G,B,]2 [G,B,][DB] | z A, .A,2 A,B | z D EF E[DA] | x6 | x6 | x6 | x6 | %20
 x6 | z [G,B,] .[G,B,]2 [G,B,][DB] | z [G,A,] [G,A,] [=CD]2 [CA] | x6 |] %24

